X:6
T:Maple Leaf Rag (Extended)
C:Scott Joplin
M:2/4
L:1/16
Q:1/4=120
K:C
e2^de =d2c2 | B4 d4 | c2Bc A2G2 | E4 G4 |
e2^de =d2c2 | B4 d4 | c2Bc A2G2 | F8 |
c2Bc A2G2 | F2GA B2c2 | d2cd B2A2 | G4 E4 |
c2Bc A2G2 | F2GA B2c2 | d2ed c2B2 | A8 |
e2fe d2c2 | B2AB G2F2 | E2FG A2B2 | c2dc B2A2 |
G2AG F2E2 | D2EF G2A2 | B2cB A2G2 | F8 |
e2^de =d2c2 | B4 d4 | c2Bc A2G2 | E4 G4 |
e2^de =d2c2 | B4 d4 | c2Bc A2G2 | F8 |]